X:66
T:O Little Town of Bethlehem
%%stretchlast false
M:4/4
L:1/4
K:Eb clef=C1
"^I"[EBg] [EBg] [EBg] "^i°"[E=A_g] | "^I"[EBg] "^vø7³"[A,=E_db] "^ii¹"[A,Fca] [A,FAc] | [A,Acf] "^I²"[B,GBe] "^V"[B,FBd]/ "^I²"[B,GBe]/ "^♯iii"[B,ABf] | "^♯iii¹"[B,AB] "^I"[E,GBg]3 | [EBg] [EBg] "^♯vi°"[_DGeg] "^VI"[CG=ec'] | [Cc=eb] "^v"[Fcfb] "^ii"[Fca] [F,Ac] | "^ii¹"[A,Acf] "^I²"[B,GBe] "^V+"[B,_GBd]/ "^I²"[B,GBe]/ "^iii¹"[B,Bdg] | "^V7"[B,Adf] "^I"[EGe]3 | [EBeg] [EBeg] [EGeg] "^vii°¹"[FAdf] | "^i°7¹"[_G=Ace] "^III"[G=Bd]2 [G=Bd] | "^V/vi"[G,G=Bd] "^vi¹"[EGc] "^V/vi²"[DG=Bd] "^vi"[CGce] | "^ii¹"[A,Fcf] "^III"[G,D=Bg]3 | "^I"[E,EBg] [E,EBg] [EBg] "^i°"[E=A_g] | "^I"[EBg] "^IV+"[A,=Ecb] "^ii¹"[A,Fca] [A,FAc] | "^vi+"[A,Acc']/ [A,Adc']/ "^I²"[B,Geb] "^II7²"[CF=Ae]/ "^♭v°¹"[CE=Ae]/ "^I²"[B,EBg]3/2 | "^V7"[B,DAf]/ "^I"[E,EGe]3 |]
